X: 1010
T: Unter der Chuppe
R: jig, march
Z: 2011 John Chambers <jc:trillian.mit.edu>
F: http://dl.lib.brown.edu/catalog/catalog.php?verb=render&id=1182964173171875&view=pageturner&pageno=1
S: Printed sheet by Herman S Shapiro (The Hebrew Publishing Co., New York, 1912)
M: 6/8
L: 1/8
K: C
|: GAB c3 | Bcd e3 | def gdf |1 eBd c{dc}BA :|2 eBd c2z ||
|: e2e ^g2g | a6 | agf efe | dcB ABc \
|  d2d ^f2f | g6 | gfe dgB | d3 {ed}c2z |]


%%sep 5 1 500

